frontend/public/svg/arrows/arrow-square-right.svg

<svg width="153" height="149" viewBox="0 0 153 149" fill="none" xmlns="http://www.w3.org/2000/svg">
<path d="M151.782 94.9971C151.598 90.5774 151.404 84.3297 151.198 77.7144C150.885 67.5983 150.53 56.1328 150.137 49.2564C149.743 42.332 149.179 33.2187 148.32 24.1186C147.083 11.0089 136.531 1.51963 122.661 1.04182C112.312 0.686082 101.789 0.537725 91.6062 0.393331H91.5064C88.5995 0.351325 85.6434 0.377539 82.7857 0.401823C78.0824 0.440547 73.2215 0.481906 68.4598 0.230528C57.6808 -0.339829 46.2572 0.137925 31.4168 1.77811C21.8132 2.83941 14.5908 5.65907 8.68578 10.6512C3.84988 14.7395 1.49302 19.4763 1.4812 25.1313C1.47661 27.0038 1.43917 28.8823 1.3696 30.7167C1.30856 32.3504 1.197 34.0175 1.0887 35.6295C0.785323 39.059 0.703517 42.5044 0.843855 45.9444C1.58355 57.639 2.74724 83.2782 1.84871 96.6136C1.53039 101.344 1.61768 106.175 1.70169 110.846L1.72012 111.897C1.74388 119.206 2.95121 126.464 5.29521 133.388C7.71316 140.286 12.4046 144.48 19.2397 145.854C23.5213 146.744 27.8667 147.295 32.2352 147.5C40.3974 147.832 48.6995 148.017 56.7298 148.197C59.9878 148.269 63.2461 148.345 66.5046 148.424L66.8282 148.331L69.6353 148.323H75.8705L79.2953 148.328C92.7935 148.351 106.758 148.383 120.379 146.249C125.119 145.506 130.656 144.469 135.779 142.41C145.997 138.303 151.511 130.733 152.168 119.908C152.594 112.885 152.271 105.812 151.959 98.9706C151.896 97.6457 151.837 96.3212 151.782 94.9971ZM10.0405 87.318L9.99781 85.4756C9.79632 76.6636 9.3763 58.327 8.87486 50.6091C8.37932 42.9956 8.07802 32.9536 10.1586 22.8197L10.179 22.7455C10.2159 22.6416 10.232 22.5315 10.2262 22.4213C9.72807 16.5281 13.8801 14.2506 18.2756 11.8385L18.4245 11.7565C22.6507 9.43766 27.3087 8.63495 31.718 8.01012C41.7099 6.69695 51.7817 6.08844 61.859 6.18933C66.053 6.18933 70.188 6.25831 74.2428 6.34364C81.603 6.49853 89.0872 6.59902 96.3247 6.69616C102.666 6.78148 109.222 6.86934 115.669 6.99404C118.665 7.03009 121.655 7.28588 124.613 7.75934C135.352 9.54786 141.291 16.5268 141.788 27.9398C142.15 36.2425 142.485 47.8525 142.808 59.0811C143.108 69.4762 143.419 80.2249 143.742 87.9848C143.844 90.446 143.985 92.9462 144.121 95.3634C144.334 99.1564 144.555 103.08 144.633 106.938C144.726 111.505 144.473 116.182 144.206 120.582C143.809 127.109 140.022 131.74 132.949 134.351C128.672 135.853 124.251 136.909 119.757 137.502C104.665 139.753 89.185 139.652 74.2192 139.555L72.2423 139.543C71.4678 139.538 70.6933 139.54 69.9182 139.543H68.4926L68.4867 139.799C65.1722 139.715 61.8573 139.632 58.5419 139.551C48.9489 139.316 39.0296 139.072 29.2765 138.751C26.7471 138.598 24.2334 138.249 21.7581 137.708L21.3321 137.626C17.1047 136.817 14.2765 134.209 12.931 129.872C10.9275 123.241 9.925 116.348 9.95647 109.422C9.93481 106.268 9.97943 103.055 10.0221 99.9545C10.0785 95.8103 10.1344 91.5278 10.0379 87.3161L10.0405 87.318Z" fill="black"/>
<path d="M37.2862 76.1213C37.8257 76.1711 38.3655 76.223 38.9054 76.2768C41.1232 76.4941 43.4158 76.7186 45.6814 76.7481C54.7179 76.8656 67.5093 76.9567 79.8766 77.0453C89.4592 77.111 98.5094 77.1766 105.444 77.2514C105.95 77.2702 106.454 77.3211 106.954 77.4038L107.293 77.4511C107.142 77.6145 106.998 77.77 106.862 77.9183C106.368 78.4539 105.959 78.8983 105.533 79.3255C99.5399 85.4289 94.5309 92.4255 90.6846 100.066L90.5618 100.3C90.1812 100.962 89.8812 101.667 89.6685 102.4C89.5969 102.835 89.6268 103.281 89.7558 103.702C89.7939 103.872 89.8313 104.041 89.8543 104.207L89.9016 104.552L90.2428 104.486C90.4427 104.451 90.6443 104.427 90.8467 104.412C91.3624 104.424 91.8691 104.275 92.2959 103.985C92.7695 103.539 93.1949 103.044 93.5652 102.509C93.8514 102.105 94.1641 101.72 94.5011 101.358C97.2486 98.5489 100.001 95.7453 102.759 92.9471C106.334 89.3154 109.901 85.6774 113.461 82.0329C115.044 80.5114 116.47 78.8357 117.72 77.0309C119.502 74.2638 119.229 71.9614 116.813 69.3334C114.491 66.8091 112.059 64.0749 109.379 60.975C107.428 58.7176 105.486 56.4524 103.553 54.1793C101.453 51.7167 99.3449 49.2593 97.2289 46.8072C96.4207 45.8203 95.4728 44.9567 94.4152 44.2435C93.7825 43.8497 92.4153 43.796 91.8824 44.2882C91.5912 44.6375 91.3951 45.0561 91.313 45.5033C91.2309 45.9506 91.2656 46.4114 91.4137 46.8413C91.9861 47.8903 92.6646 48.8778 93.4385 49.7883C93.6105 50.0042 93.7812 50.2195 93.9492 50.4361C96.3847 53.5773 98.823 56.7167 101.264 59.854C104.108 63.5111 106.949 67.1697 109.787 70.8299C110.02 71.1553 110.227 71.4998 110.403 71.8597C110.446 71.9417 110.492 72.0264 110.539 72.115C108.971 72.0382 107.431 71.9594 105.909 71.8813C102.155 71.6897 98.6078 71.5078 95.0137 71.37C87.3713 71.0786 76.2084 70.7951 65.4129 70.5214C56.1198 70.2845 47.3426 70.0619 40.8954 69.8388C39.632 69.8075 38.3685 69.8972 37.1221 70.1065C35.2188 70.4091 34.2526 71.3884 34.2546 73.0181C34.2539 74.8381 35.3316 75.9394 37.2862 76.1213Z" fill="black"/>
</svg>

<svg xmlns="http://www.w3.org/2000/svg" width="153" height="149" fill="none" viewBox="0 0 153 149"><path fill="#000" d="M151.782 94.997c-.184-4.42-.378-10.667-.584-17.283-.313-10.116-.668-21.581-1.061-28.458-.394-6.924-.958-16.037-1.817-25.137-1.237-13.11-11.789-22.6-25.659-23.077C112.312.686 101.789.538 91.606.393h-.1C88.6.351 85.643.378 82.786.402 78.082.44 73.222.482 68.46.23 57.68-.34 46.257.138 31.417 1.778 21.813 2.84 14.59 5.66 8.686 10.651 3.85 14.74 1.493 19.476 1.48 25.131a158 158 0 0 1-.111 5.586 167 167 0 0 1-.281 4.913 80 80 0 0 0-.245 10.314c.74 11.695 1.903 37.334 1.005 50.67-.319 4.73-.231 9.561-.147 14.232l.018 1.051a67.7 67.7 0 0 0 3.575 21.491c2.418 6.898 7.11 11.092 13.945 12.466a83 83 0 0 0 12.995 1.646c8.162.332 16.465.517 24.495.697q4.887.108 9.775.227l.323-.093 2.807-.008h6.236l3.424.005c13.498.023 27.463.055 41.084-2.079 4.74-.743 10.277-1.78 15.4-3.839 10.218-4.107 15.732-11.677 16.389-22.502.426-7.023.103-14.096-.209-20.937q-.095-1.988-.177-3.974m-141.74-7.679-.043-1.842c-.202-8.812-.622-27.149-1.123-34.867-.496-7.613-.797-17.655 1.284-27.79l.02-.073a.8.8 0 0 0 .047-.325c-.498-5.893 3.654-8.17 8.05-10.582l.148-.082c4.227-2.32 8.885-3.122 13.294-3.747a215 215 0 0 1 30.141-1.82c4.194 0 8.329.068 12.384.154 7.36.155 14.844.255 22.082.352 6.341.085 12.897.173 19.344.298a61 61 0 0 1 8.944.765c10.739 1.789 16.678 8.768 17.175 20.18.362 8.304.697 19.914 1.02 31.142.3 10.395.611 21.144.934 28.904.102 2.461.243 4.961.379 7.378.213 3.793.434 7.717.512 11.575.093 4.567-.16 9.244-.427 13.644-.397 6.527-4.184 11.158-11.257 13.769a65.8 65.8 0 0 1-13.192 3.151c-15.092 2.251-30.572 2.15-45.538 2.053l-1.977-.012q-1.161-.006-2.324 0h-1.425l-.006.256q-4.972-.126-9.945-.248c-9.593-.235-19.512-.479-29.266-.8a49 49 0 0 1-7.518-1.043l-.426-.082c-4.227-.809-7.055-3.417-8.401-7.754a69.6 69.6 0 0 1-2.975-20.45c-.021-3.154.023-6.367.066-9.468.056-4.144.112-8.426.016-12.638z"/><path fill="#000" d="M37.286 76.121q.81.075 1.62.156c2.217.217 4.51.442 6.775.471 9.037.118 21.828.209 34.196.297 9.582.066 18.632.132 25.567.206q.76.03 1.51.153l.339.047-.431.467c-.494.536-.903.98-1.329 1.407a82.6 82.6 0 0 0-14.848 20.741l-.123.234a9.6 9.6 0 0 0-.894 2.1 2.86 2.86 0 0 0 .088 1.302c.038.17.075.339.098.505l.048.345.34-.066q.3-.052.605-.074a2.5 2.5 0 0 0 1.449-.427 9.3 9.3 0 0 0 1.27-1.476q.428-.607.935-1.151 4.121-4.215 8.258-8.41 5.362-5.448 10.702-10.915a33 33 0 0 0 4.259-5.002c1.782-2.767 1.509-5.07-.907-7.698a362 362 0 0 1-7.434-8.358 1118 1118 0 0 1-5.826-6.796q-3.15-3.693-6.324-7.372a13.1 13.1 0 0 0-2.814-2.564c-.633-.393-2-.447-2.533.045a2.64 2.64 0 0 0-.468 2.553 17.5 17.5 0 0 0 2.025 2.947q.258.323.51.648 3.654 4.711 7.315 9.418a9694 9694 0 0 1 8.523 10.976q.35.489.616 1.03l.136.255c-1.568-.077-3.108-.156-4.63-.234-3.754-.191-7.301-.373-10.895-.511-7.643-.291-18.806-.575-29.601-.849-9.293-.237-18.07-.46-24.518-.682a20 20 0 0 0-3.773.267c-1.903.303-2.87 1.282-2.867 2.912-.001 1.82 1.077 2.921 3.031 3.103"/></svg>
